X: 7
T: John O'Shea's March
Z: ceolachan
S: https://thesession.org/tunes/4770#setting28994
R: barndance
M: 4/4
L: 1/8
K: Amaj
cB |A2 CD E2 F/G/A | B3 c e2 cB | AF EF/G/ A2 A2 | A4- A2 Bc |
d2 e2 f2 ed | c2 A2 B2 cd | ed cA GE F2 | E4- E2 Bc |
d2 e2 f2 ed | c2 A2 B2 cd | ed cA GE F2 | E4- EBcB |
A2 CD E2 F/G/A | B3 c e2 cB | AF EF/G/ A2 A2 | A4- A2 |]
